X:1
T:Brian Borouhme
C:
R:Jig
Q:180
K:C
M:6/8
L:1/16
|:e2|c2B2A2 A2e2d2|c2B2A2 A4d2|B2A2G2 G2d2c2|B2A2G2 G4e2|c2B2A2 A2e2d2|c2B2A2 A4d2|c2d2e2 e4d2|c2A2A2 A4B2|
c2d2e2 e2f2e2|e2f2e2 e2d2c2|B2c2d2 d2e2d2|d2e2d2 d2c2B2|c2d2e2 e2f2e2|e2f2e2 e2d2c2|e6 e4d2|c2A2A2 A4:|
